packages/symbols/svgs/solid/arrow-trend-up-solid.svg

<svg width="16" height="16" viewBox="0 0 16 16" fill="none" xmlns="http://www.w3.org/2000/svg">
<path d="M8.99999 6H12.6L8.99999 9.6L4.99999 5.6L0.299988 10.3L1.69999 11.7L4.99999 8.4L8.99999 12.4L14 7.4V11H16V4H8.99999V6Z" fill="black"/>
</svg>

<svg width="16" height="16" viewBox="0 0 16 16" xmlns="http://www.w3.org/2000/svg"><path d="M9 6h3.6L9 9.6l-4-4-4.7 4.7 1.4 1.4L5 8.4l4 4 5-5V11h2V4H9v2Z"/></svg>
